icons/circle/48/preferences-desktop-locale.svg

<svg xmlns="http://www.w3.org/2000/svg" xmlns:xlink="http://www.w3.org/1999/xlink" viewBox="0 0 48 48">
 <defs>
  <linearGradient id="linearGradient3764" x1="1" x2="47" gradientUnits="userSpaceOnUse" gradientTransform="matrix(0,-1,1,0,-1.5e-6,47.999998)">
   <stop style="stop-color:#66c3de;stop-opacity:1"/>
   <stop offset="1" style="stop-color:#77c9e2;stop-opacity:1"/>
  </linearGradient>
 </defs>
 <g>
  <path d="m 36.31 5 c 5.859 4.062 9.688 10.831 9.688 18.5 c 0 12.426 -10.07 22.5 -22.5 22.5 c -7.669 0 -14.438 -3.828 -18.5 -9.688 c 1.037 1.822 2.306 3.499 3.781 4.969 c 4.085 3.712 9.514 5.969 15.469 5.969 c 12.703 0 23 -10.298 23 -23 c 0 -5.954 -2.256 -11.384 -5.969 -15.469 c -1.469 -1.475 -3.147 -2.744 -4.969 -3.781 z m 4.969 3.781 c 3.854 4.113 6.219 9.637 6.219 15.719 c 0 12.703 -10.297 23 -23 23 c -6.081 0 -11.606 -2.364 -15.719 -6.219 c 4.16 4.144 9.883 6.719 16.219 6.719 c 12.703 0 23 -10.298 23 -23 c 0 -6.335 -2.575 -12.06 -6.719 -16.219 z" style="opacity:0.05"/>
  <path d="m 41.28 8.781 c 3.712 4.085 5.969 9.514 5.969 15.469 c 0 12.703 -10.297 23 -23 23 c -5.954 0 -11.384 -2.256 -15.469 -5.969 c 4.113 3.854 9.637 6.219 15.719 6.219 c 12.703 0 23 -10.298 23 -23 c 0 -6.081 -2.364 -11.606 -6.219 -15.719 z" style="opacity:0.1"/>
  <path d="m 31.25 2.375 c 8.615 3.154 14.75 11.417 14.75 21.13 c 0 12.426 -10.07 22.5 -22.5 22.5 c -9.708 0 -17.971 -6.135 -21.12 -14.75 a 23 23 0 0 0 44.875 -7 a 23 23 0 0 0 -16 -21.875 z" style="opacity:0.2"/>
 </g>
 <g>
  <path d="m 24 1 c 12.703 0 23 10.297 23 23 c 0 12.703 -10.297 23 -23 23 -12.703 0 -23 -10.297 -23 -23 0 -12.703 10.297 -23 23 -23 z" style="fill:url(#linearGradient3764);fill-opacity:1"/>
 </g>
 <g>
  <g>
   <g transform="translate(1,1)">
    <g style="opacity:0.1">
     <!-- color: #77c9e2 -->
     <g>
      <path d="m 15 14 l 12 -0.004 l 0 14 l -12 0 m 0 -14" style="fill:#000;fill-opacity:1;stroke:none;fill-rule:nonzero"/>
      <use xlink:href="#SVGCleanerId_0"/>
      <path d="m 14.5 11 c 0.828 0 1.5 0.793 1.5 1.773 l 0 22.453 c 0 0.98 -0.672 1.773 -1.5 1.773 c -0.828 0 -1.5 -0.793 -1.5 -1.773 l 0 -22.453 c 0 -0.98 0.672 -1.773 1.5 -1.773 m 0 0" style="fill:#000;fill-opacity:1;stroke:none;fill-rule:nonzero"/>
      <path d="m 25 13 l 0.07 13.996 l 11.93 0.004 l -6.125 -8 l 6.125 -6 m -12 0" style="fill:#000;fill-opacity:1;stroke:none;fill-rule:nonzero"/>
     </g>
    </g>
   </g>
  </g>
 </g>
 <g>
  <g>
   <!-- color: #77c9e2 -->
   <g>
    <path d="m 15 14 l 12 -0.004 l 0 14 l -12 0 m 0 -14" style="fill:#de493d;fill-opacity:1;stroke:none;fill-rule:nonzero"/>
    <path d="m 27 14 l -1.074 0 l -10.926 8.754 l 0 5.25 l 12 0 m 0 -14" id="SVGCleanerId_0" style="fill:#000;fill-opacity:0.2;stroke:none;fill-rule:nonzero"/>
    <path d="m 14.5 11 c 0.828 0 1.5 0.793 1.5 1.773 l 0 22.453 c 0 0.98 -0.672 1.773 -1.5 1.773 c -0.828 0 -1.5 -0.793 -1.5 -1.773 l 0 -22.453 c 0 -0.98 0.672 -1.773 1.5 -1.773 m 0 0" style="fill:#fbb23c;fill-opacity:1;stroke:none;fill-rule:nonzero"/>
    <path d="m 25 13 l 0.07 13.996 l 11.93 0.004 l -6.125 -8 l 6.125 -6 m -12 0" style="fill:#de493d;fill-opacity:1;stroke:none;fill-rule:nonzero"/>
   </g>
  </g>
 </g>
 <g>
  <path d="m 40.03 7.531 c 3.712 4.084 5.969 9.514 5.969 15.469 0 12.703 -10.297 23 -23 23 c -5.954 0 -11.384 -2.256 -15.469 -5.969 4.178 4.291 10.01 6.969 16.469 6.969 c 12.703 0 23 -10.298 23 -23 0 -6.462 -2.677 -12.291 -6.969 -16.469 z" style="opacity:0.1"/>
 </g>
</svg>

<svg xmlns="http://www.w3.org/2000/svg" xmlns:xlink="http://www.w3.org/1999/xlink" viewBox="0 0 48 48">
  <defs>
    <linearGradient id="a" x1="1" x2="47" gradientUnits="userSpaceOnUse" gradientTransform="rotate(-90 24 24)">
      <stop stop-color="#66c3de"/>
      <stop offset="1" stop-color="#77c9e2"/>
    </linearGradient>
  </defs>
  <path d="M36.31 5c5.859 4.062 9.688 10.831 9.688 18.5 0 12.426-10.07 22.5-22.5 22.5-7.669 0-14.438-3.828-18.5-9.688a23.24 23.24 0 0 0 3.781 4.969 22.923 22.923 0 0 0 15.469 5.969c12.703 0 23-10.298 23-23a22.92 22.92 0 0 0-5.969-15.469A23.216 23.216 0 0 0 36.31 5zm4.969 3.781A22.911 22.911 0 0 1 47.498 24.5c0 12.703-10.297 23-23 23a22.909 22.909 0 0 1-15.719-6.219C12.939 45.425 18.662 48 24.998 48c12.703 0 23-10.298 23-23 0-6.335-2.575-12.06-6.719-16.219z" opacity=".05"/>
  <path d="M41.28 8.781a22.923 22.923 0 0 1 5.969 15.469c0 12.703-10.297 23-23 23A22.92 22.92 0 0 1 8.78 41.281 22.911 22.911 0 0 0 24.499 47.5c12.703 0 23-10.298 23-23A22.909 22.909 0 0 0 41.28 8.781z" opacity=".1"/>
  <path d="M31.25 2.375C39.865 5.529 46 13.792 46 23.505c0 12.426-10.07 22.5-22.5 22.5-9.708 0-17.971-6.135-21.12-14.75a23 23 0 0 0 44.875-7 23 23 0 0 0-16-21.875z" opacity=".2"/>
  <path d="M24 1c12.703 0 23 10.297 23 23S36.703 47 24 47 1 36.703 1 24 11.297 1 24 1z" fill="url(#a)"/>
  <g transform="translate(1 1)" opacity=".1">
    <path d="M15 14l12-.004v14H15m0-14"/>
    <use xlink:href="#b"/>
    <path d="M14.5 11c.828 0 1.5.793 1.5 1.773v22.453c0 .98-.672 1.773-1.5 1.773s-1.5-.793-1.5-1.773V12.773c0-.98.672-1.773 1.5-1.773m0 0M25 13l.07 13.996L37 27l-6.125-8L37 13m-12 0"/>
  </g>
  <g>
    <path d="M15 14l12-.004v14H15m0-14" fill="#de493d"/>
    <path d="M27 14h-1.074L15 22.754v5.25h12m0-14" id="b" fill-opacity=".2"/>
    <path d="M14.5 11c.828 0 1.5.793 1.5 1.773v22.453c0 .98-.672 1.773-1.5 1.773s-1.5-.793-1.5-1.773V12.773c0-.98.672-1.773 1.5-1.773m0 0" fill="#fbb23c"/>
    <path d="M25 13l.07 13.996L37 27l-6.125-8L37 13m-12 0" fill="#de493d"/>
  </g>
  <g>
    <path d="M40.03 7.531A22.922 22.922 0 0 1 45.999 23c0 12.703-10.297 23-23 23A22.92 22.92 0 0 1 7.53 40.031C11.708 44.322 17.54 47 23.999 47c12.703 0 23-10.298 23-23 0-6.462-2.677-12.291-6.969-16.469z" opacity=".1"/>
  </g>
</svg>
